exports/fatality-rates-due-to-lightning-in-the-us_v1_850x600.svg

<svg xmlns="http://www.w3.org/2000/svg" version="1.1" style="background-color:#fff;-webkit-font-smoothing:antialiased" width="850" height="600" font-family="'Helvetica Neue',Helvetica,Arial,sans-serif" font-size="18" text-rendering="optimizeLegibility"><g class="ChartTab"><g class="HeaderView"><g opacity=".8" transform="matrix(.31 0 0 .31 770 15)"><a xmlns:xlink="http://www.w3.org/1999/xlink" xlink:href="https://ourworldindata.org" target="_blank"><g><path fill="#1B2543" d="M0 0h211.2v130.1H0z"/><path fill="#E63912" d="M0 112.2h211.2v17.9H0z"/><g><path fill="none" d="M1.2 12.3h210.2v99.2H1.2z"/><path fill="#FFF" d="M37.8 32.2c0 12.7-7.7 19.4-17.1 19.4-9.7 0-16.6-7.5-16.6-18.7 0-11.7 7.3-19.3 17.1-19.3 10.1.1 16.6 7.7 16.6 18.6zm-28.6.6c0 7.9 4.3 14.9 11.8 14.9 7.5 0 11.8-6.9 11.8-15.3 0-7.3-3.8-14.9-11.8-14.9-7.9 0-11.8 7.3-11.8 15.3zM62.7 43.8c0 2.7.1 5.1.2 7.2h-4.3l-.3-4.3h-.1c-1.3 2.1-4 4.9-8.8 4.9-4.2 0-9.1-2.3-9.1-11.6V24.6h4.8v14.6c0 5 1.5 8.4 5.9 8.4 3.2 0 5.5-2.2 6.3-4.4.3-.7.4-1.6.4-2.5V24.6h4.8v19.2zM67.3 32.8c0-3.1-.1-5.8-.2-8.2h4.2l.2 5.2h.2c1.2-3.5 4.1-5.8 7.3-5.8.5 0 .9.1 1.4.2v4.5c-.5-.1-1-.2-1.6-.2-3.4 0-5.8 2.6-6.5 6.2-.1.7-.2 1.4-.2 2.2V51h-4.8V32.8zM95.4 51L86 14.2h5l4.4 18.6c1.1 4.6 2.1 9.2 2.7 12.7h.1c.6-3.7 1.8-8 3-12.8l4.9-18.5h5l4.5 18.7c1 4.4 2 8.7 2.6 12.6h.1c.8-4 1.8-8.1 3-12.7l4.9-18.5h4.9L120.6 51h-5L111 31.9c-1.1-4.7-1.9-8.3-2.4-12h-.1c-.7 3.7-1.5 7.3-2.8 12L100.4 51h-5zM154.9 37.6c0 9.8-6.8 14-13.2 14-7.2 0-12.7-5.2-12.7-13.6 0-8.8 5.8-14 13.1-14 7.7 0 12.8 5.5 12.8 13.6zm-21 .3c0 5.8 3.3 10.1 8 10.1 4.6 0 8-4.3 8-10.3 0-4.5-2.2-10.1-7.9-10.1s-8.1 5.2-8.1 10.3zM158.2 32.8c0-3.1-.1-5.8-.2-8.2h4.2l.2 5.2h.2c1.2-3.5 4.1-5.8 7.3-5.8.5 0 .9.1 1.4.2v4.5c-.5-.1-1-.2-1.6-.2-3.4 0-5.8 2.6-6.5 6.2-.1.7-.2 1.4-.2 2.2V51h-4.8V32.8zM173.5 12.3h4.8V51h-4.8V12.3zM206.5 12.3v31.9c0 2.3.1 5 .2 6.8h-4.3l-.2-4.6h-.2c-1.5 2.9-4.7 5.2-9 5.2-6.4 0-11.3-5.4-11.3-13.4-.1-8.8 5.4-14.2 11.9-14.2 4 0 6.8 1.9 8 4h.1V12.3h4.8zm-4.8 23.1c0-.6-.1-1.4-.2-2a7 7 0 00-6.9-5.6c-5 0-7.9 4.4-7.9 10.2 0 5.3 2.6 9.8 7.8 9.8 3.2 0 6.2-2.1 7.1-5.7.2-.7.2-1.3.2-2.1v-4.6zM42.8 64c.1 1.6-1.1 2.9-3.1 2.9-1.7 0-2.9-1.3-2.9-2.9 0-1.7 1.3-3 3-3 1.9 0 3 1.3 3 3zm-5.4 33.8V71.4h4.8v26.4h-4.8zM47.5 78.6c0-2.7-.1-5-.2-7.1h4.3l.3 4.4h.1c1.3-2.5 4.4-5 8.8-5 3.7 0 9.4 2.2 9.4 11.2v15.8h-4.8V82.6c0-4.3-1.6-7.8-6.1-7.8-3.2 0-5.6 2.2-6.5 4.9-.2.6-.3 1.4-.3 2.2v15.9h-4.8V78.6zM84 61.6c2.9-.4 6.3-.8 10.1-.8 6.8 0 11.7 1.6 14.9 4.6 3.3 3 5.2 7.3 5.2 13.2 0 6-1.9 10.9-5.3 14.3-3.4 3.4-9.1 5.3-16.3 5.3-3.4 0-6.2-.2-8.6-.4V61.6zm4.8 32.5c1.2.2 3 .3 4.8.3 10.2 0 15.7-5.7 15.7-15.6.1-8.7-4.9-14.2-14.9-14.2-2.5 0-4.3.2-5.6.5v29zM132.1 97.8l-.4-3.3h-.2a9.79 9.79 0 01-8.1 3.9c-5.4 0-8.1-3.8-8.1-7.6 0-6.4 5.7-9.9 15.9-9.8v-.5c0-2.2-.6-6.1-6-6.1-2.5 0-5 .8-6.9 2l-1.1-3.2c2.2-1.4 5.4-2.3 8.7-2.3 8.1 0 10.1 5.5 10.1 10.8v9.9c0 2.3.1 4.5.4 6.3h-4.3zm-.7-13.4c-5.3-.1-11.2.8-11.2 5.9 0 3.1 2.1 4.6 4.5 4.6 3.4 0 5.6-2.2 6.4-4.4.2-.5.3-1 .3-1.5v-4.6zM146.6 63.9v7.6h6.9v3.7h-6.9v14.2c0 3.3.9 5.1 3.6 5.1 1.3 0 2.2-.2 2.8-.3l.2 3.6c-.9.4-2.4.7-4.3.7-2.2 0-4-.7-5.2-2-1.4-1.4-1.9-3.8-1.9-6.9V75.1h-4.1v-3.7h4.1v-6.3l4.8-1.2zM171.4 97.8l-.4-3.3h-.2a9.79 9.79 0 01-8.1 3.9c-5.4 0-8.1-3.8-8.1-7.6 0-6.4 5.7-9.9 15.9-9.8v-.5c0-2.2-.6-6.1-6-6.1-2.5 0-5 .8-6.9 2l-1.1-3.2c2.2-1.4 5.4-2.3 8.7-2.3 8.1 0 10.1 5.5 10.1 10.8v9.9c0 2.3.1 4.5.4 6.3h-4.3zm-.7-13.4c-5.3-.1-11.2.8-11.2 5.9 0 3.1 2.1 4.6 4.5 4.6 3.4 0 5.6-2.2 6.4-4.4.2-.5.3-1 .3-1.5v-4.6z"/></g></g></a></g><a href="https://ourworldindata.org/grapher/fatality-rates-due-to-lightning-in-the-us" target="_blank"><text font-size="27" x="15" y="36.6" fill="#555"><tspan x="15" y="36.6">Fatality rates due to lightning in the US, United States</tspan></text></a><text font-size="14.4" x="15" y="55.5" fill="#666"><tspan x="15" y="55.52">Annual death rate per million.</tspan></text></g><g class="LineChart"><defs><clipPath id="a"><path d="M19.07 0h830v956.2h-830z"/></clipPath></defs><g class="AxisBoxView"><g class="HorizontalAxis" fill="#666" text-anchor="middle" font-size="16.2"><text x="29.1" y="556.5">1900</text><text x="167.5" y="556.5">1920</text><text x="305.9" y="556.5">1940</text><text x="444.3" y="556.5">1960</text><text x="582.8" y="556.5">1980</text><text x="721.2" y="556.5">2000</text><text x="825" y="556.5">2015</text></g><g class="VerticalAxis" fill="#666" dominant-baseline="middle" text-anchor="end" font-size="16.2"><text x="24.07" y="535.3">0</text><text x="24.07" y="463">1</text><text x="24.07" y="390.7">2</text><text x="24.07" y="318.4">3</text><text x="24.07" y="246.1">4</text><text x="24.07" y="173.8">5</text><text x="24.07" y="101.5">6</text></g><g class="AxisGridLines"><path stroke="#ccc" d="M29.07 535.3H825"/><path stroke="#ddd" stroke-dasharray="3,2" d="M29.07 463H825M29.07 390.7H825M29.07 318.4H825M29.07 246.1H825M29.07 173.8H825M29.07 101.5H825"/></g><g class="AxisGridLines" stroke="#ddd" stroke-dasharray="3,2"><path d="M29.1 535.3V78.4M167.5 535.3V78.4M305.9 535.3V78.4M444.3 535.3V78.4M582.8 535.3V78.4M721.2 535.3V78.4"/></g></g><g clip-path="url(#a)"><g class="Lines"><g class="key-United-States_0"><path stroke="#ca2628" stroke-linecap="round" d="M29 186l7-108 7 76 7 63 7 44 7 8 7-97 7 84 6-24 7 56 7 17 7-73 7-5 7-65 7 51 7 73 7-120 7-2 7 3 7 10 7 14 6-37 7 47 7-5 7 94 7-71 7 60 7 19 7-35 7 32 7 19 7-48 7 53 7-8 6-42 7 60 7-24 7-28 7 38 7 5 7 29 7-24 7 12 7-29 7 10 7 80 6 20 7-51 7 43 7 5 7 16 7-13 7 19 7 33 7-33 7 19 7 15 7-12 7 33 6-32 7 23 7-7 7-1 7-4 7 14 7-6 7 15 7 9 7-15h7l7 4h7l6 11 7-10 7 4 7-4 7 15 7-11 7 7 7 3 7-2 7 3 7-4 7 2 6 1 7 2 7 2 7-5 7 5 7 2 7-4 7 5 7 10 7-1 7-7 7-4 7 9 6 3h7l7-1 7-1 7 2 7-1 7 2 7 2 7-1 7-2 7 1 7 4 7-2 6 2h14l7 1 7-1h7" fill="none" stroke-width="1.5"/><g fill="#ca2628"><circle cx="29" cy="186" r="2"/><circle cx="36" cy="78" r="2"/><circle cx="43" cy="154" r="2"/><circle cx="50" cy="217" r="2"/><circle cx="57" cy="261" r="2"/><circle cx="64" cy="269" r="2"/><circle cx="71" cy="172" r="2"/><circle cx="78" cy="256" r="2"/><circle cx="84" cy="232" r="2"/><circle cx="91" cy="288" r="2"/><circle cx="98" cy="305" r="2"/><circle cx="105" cy="232" r="2"/><circle cx="112" cy="227" r="2"/><circle cx="119" cy="162" r="2"/><circle cx="126" cy="213" r="2"/><circle cx="133" cy="286" r="2"/><circle cx="140" cy="166" r="2"/><circle cx="147" cy="164" r="2"/><circle cx="154" cy="167" r="2"/><circle cx="161" cy="177" r="2"/><circle cx="168" cy="191" r="2"/><circle cx="174" cy="154" r="2"/><circle cx="181" cy="201" r="2"/><circle cx="188" cy="196" r="2"/><circle cx="195" cy="290" r="2"/><circle cx="202" cy="219" r="2"/><circle cx="209" cy="279" r="2"/><circle cx="216" cy="298" r="2"/><circle cx="223" cy="263" r="2"/><circle cx="230" cy="295" r="2"/><circle cx="237" cy="314" r="2"/><circle cx="244" cy="266" r="2"/><circle cx="251" cy="319" r="2"/><circle cx="258" cy="311" r="2"/><circle cx="264" cy="269" r="2"/><circle cx="271" cy="329" r="2"/><circle cx="278" cy="305" r="2"/><circle cx="285" cy="277" r="2"/><circle cx="292" cy="315" r="2"/><circle cx="299" cy="320" r="2"/><circle cx="306" cy="349" r="2"/><circle cx="313" cy="325" r="2"/><circle cx="320" cy="337" r="2"/><circle cx="327" cy="308" r="2"/><circle cx="334" cy="318" r="2"/><circle cx="341" cy="398" r="2"/><circle cx="347" cy="418" r="2"/><circle cx="354" cy="367" r="2"/><circle cx="361" cy="410" r="2"/><circle cx="368" cy="415" r="2"/><circle cx="375" cy="431" r="2"/><circle cx="382" cy="418" r="2"/><circle cx="389" cy="437" r="2"/><circle cx="396" cy="470" r="2"/><circle cx="403" cy="437" r="2"/><circle cx="410" cy="456" r="2"/><circle cx="417" cy="471" r="2"/><circle cx="424" cy="459" r="2"/><circle cx="431" cy="492" r="2"/><circle cx="437" cy="460" r="2"/><circle cx="444" cy="483" r="2"/><circle cx="451" cy="476" r="2"/><circle cx="458" cy="475" r="2"/><circle cx="465" cy="471" r="2"/><circle cx="472" cy="485" r="2"/><circle cx="479" cy="479" r="2"/><circle cx="486" cy="494" r="2"/><circle cx="493" cy="503" r="2"/><circle cx="500" cy="488" r="2"/><circle cx="507" cy="488" r="2"/><circle cx="514" cy="492" r="2"/><circle cx="521" cy="492" r="2"/><circle cx="527" cy="503" r="2"/><circle cx="534" cy="493" r="2"/><circle cx="541" cy="497" r="2"/><circle cx="548" cy="493" r="2"/><circle cx="555" cy="508" r="2"/><circle cx="562" cy="497" r="2"/><circle cx="569" cy="504" r="2"/><circle cx="576" cy="507" r="2"/><circle cx="583" cy="505" r="2"/><circle cx="590" cy="508" r="2"/><circle cx="597" cy="504" r="2"/><circle cx="604" cy="506" r="2"/><circle cx="610" cy="507" r="2"/><circle cx="617" cy="509" r="2"/><circle cx="624" cy="511" r="2"/><circle cx="631" cy="506" r="2"/><circle cx="638" cy="511" r="2"/><circle cx="645" cy="513" r="2"/><circle cx="652" cy="509" r="2"/><circle cx="659" cy="514" r="2"/><circle cx="666" cy="524" r="2"/><circle cx="673" cy="523" r="2"/><circle cx="680" cy="516" r="2"/><circle cx="687" cy="512" r="2"/><circle cx="694" cy="521" r="2"/><circle cx="700" cy="524" r="2"/><circle cx="707" cy="524" r="2"/><circle cx="714" cy="523" r="2"/><circle cx="721" cy="522" r="2"/><circle cx="728" cy="524" r="2"/><circle cx="735" cy="523" r="2"/><circle cx="742" cy="525" r="2"/><circle cx="749" cy="527" r="2"/><circle cx="756" cy="526" r="2"/><circle cx="763" cy="524" r="2"/><circle cx="770" cy="525" r="2"/><circle cx="777" cy="529" r="2"/><circle cx="784" cy="527" r="2"/><circle cx="790" cy="529" r="2"/><circle cx="797" cy="529" r="2"/><circle cx="804" cy="529" r="2"/><circle cx="811" cy="530" r="2"/><circle cx="818" cy="529" r="2"/><circle cx="825" cy="529" r="2"/></g></g></g></g></g><g class="SourcesFooter" fill="#777"><g class="clickable" fill="#777"><text font-size="12.6" x="15" y="581.6"><tspan x="15" y="581.58">Source: Our World In Data based on NOAA, Lopez Holle and population data</tspan></text></g><text font-size="12.6" x="526.7" y="581.6"><tspan x="526.68" y="581.58"><a target="_blank" href="https://ourworldindata.org/natural-catastrophes/" fill="#777">OurWorldInData.org/natural-catastrophes/</a> • <a href="http://creativecommons.org/licenses/by-sa/4.0/deed.en_US" target="_blank" fill="#777">CC BY-SA</a></tspan></text></g></g></svg>

<svg xmlns="http://www.w3.org/2000/svg" version="1.1" style="font-family: 'Helvetica Neue', Helvetica, Arial, sans-serif; font-size: 18px; background-color: white; text-rendering: optimizeLegibility; -webkit-font-smoothing: antialiased;" width="850" height="600"><g class="ChartTab"><g class="HeaderView"><g opacity="0.8" transform="translate(770, 15) scale(0.31)"><a xmlns:xlink="http://www.w3.org/1999/xlink" xlink:href="https://ourworldindata.org" target="_blank"><g><rect x="0" y="0" fill="#1B2543" width="211.2" height="130.1"/><rect x="0" y="112.2" fill="#E63912" width="211.2" height="17.9"/><g><rect x="1.2" y="12.3" fill="none" width="210.2" height="99.2"/><path fill="#FFFFFF" d="M37.8,32.2c0,12.7-7.7,19.4-17.1,19.4c-9.7,0-16.6-7.5-16.6-18.7c0-11.7,7.3-19.3,17.1-19.3 C31.3,13.7,37.8,21.3,37.8,32.2z M9.2,32.8c0,7.9,4.3,14.9,11.8,14.9c7.5,0,11.8-6.9,11.8-15.3c0-7.3-3.8-14.9-11.8-14.9 C13.1,17.5,9.2,24.8,9.2,32.8z"/><path fill="#FFFFFF" d="M62.7,43.8c0,2.7,0.1,5.1,0.2,7.2h-4.3l-0.3-4.3h-0.1c-1.3,2.1-4,4.9-8.8,4.9c-4.2,0-9.1-2.3-9.1-11.6 V24.6h4.8v14.6c0,5,1.5,8.4,5.9,8.4c3.2,0,5.5-2.2,6.3-4.4c0.3-0.7,0.4-1.6,0.4-2.5V24.6h4.8V43.8z"/><path fill="#FFFFFF" d="M67.3,32.8c0-3.1-0.1-5.8-0.2-8.2h4.2l0.2,5.2h0.2c1.2-3.5,4.1-5.8,7.3-5.8c0.5,0,0.9,0.1,1.4,0.2v4.5 c-0.5-0.1-1-0.2-1.6-0.2c-3.4,0-5.8,2.6-6.5,6.2c-0.1,0.7-0.2,1.4-0.2,2.2V51h-4.8V32.8z"/><path fill="#FFFFFF" d="M95.4,51l-9.4-36.8h5l4.4,18.6c1.1,4.6,2.1,9.2,2.7,12.7h0.1c0.6-3.7,1.8-8,3-12.8l4.9-18.5h5l4.5,18.7 c1,4.4,2,8.7,2.6,12.6h0.1c0.8-4,1.8-8.1,3-12.7l4.9-18.5h4.9L120.6,51h-5L111,31.9c-1.1-4.7-1.9-8.3-2.4-12h-0.1 c-0.7,3.7-1.5,7.3-2.8,12L100.4,51H95.4z"/><path fill="#FFFFFF" d="M154.9,37.6c0,9.8-6.8,14-13.2,14c-7.2,0-12.7-5.2-12.7-13.6c0-8.8,5.8-14,13.1-14 C149.8,24,154.9,29.5,154.9,37.6z M133.9,37.9c0,5.8,3.3,10.1,8,10.1c4.6,0,8-4.3,8-10.3c0-4.5-2.2-10.1-7.9-10.1 C136.3,27.6,133.9,32.8,133.9,37.9z"/><path fill="#FFFFFF" d="M158.2,32.8c0-3.1-0.1-5.8-0.2-8.2h4.2l0.2,5.2h0.2c1.2-3.5,4.1-5.8,7.3-5.8c0.5,0,0.9,0.1,1.4,0.2v4.5 c-0.5-0.1-1-0.2-1.6-0.2c-3.4,0-5.8,2.6-6.5,6.2c-0.1,0.7-0.2,1.4-0.2,2.2V51h-4.8V32.8z"/><path fill="#FFFFFF" d="M173.5,12.3h4.8V51h-4.8V12.3z"/><path fill="#FFFFFF" d="M206.5,12.3v31.9c0,2.3,0.1,5,0.2,6.8h-4.3l-0.2-4.6H202c-1.5,2.9-4.7,5.2-9,5.2 c-6.4,0-11.3-5.4-11.3-13.4c-0.1-8.8,5.4-14.2,11.9-14.2c4,0,6.8,1.9,8,4h0.1V12.3H206.5z M201.7,35.4c0-0.6-0.1-1.4-0.2-2 c-0.7-3.1-3.3-5.6-6.9-5.6c-5,0-7.9,4.4-7.9,10.2c0,5.3,2.6,9.8,7.8,9.8c3.2,0,6.2-2.1,7.1-5.7c0.2-0.7,0.2-1.3,0.2-2.1V35.4z"/><path fill="#FFFFFF" d="M42.8,64c0.1,1.6-1.1,2.9-3.1,2.9c-1.7,0-2.9-1.3-2.9-2.9c0-1.7,1.3-3,3-3C41.7,61,42.8,62.3,42.8,64z M37.4,97.8V71.4h4.8v26.4H37.4z"/><path fill="#FFFFFF" d="M47.5,78.6c0-2.7-0.1-5-0.2-7.1h4.3l0.3,4.4h0.1c1.3-2.5,4.4-5,8.8-5c3.7,0,9.4,2.2,9.4,11.2v15.8h-4.8 V82.6c0-4.3-1.6-7.8-6.1-7.8c-3.2,0-5.6,2.2-6.5,4.9c-0.2,0.6-0.3,1.4-0.3,2.2v15.9h-4.8V78.6z"/><path fill="#FFFFFF" d="M84,61.6c2.9-0.4,6.3-0.8,10.1-0.8c6.8,0,11.7,1.6,14.9,4.6c3.3,3,5.2,7.3,5.2,13.2c0,6-1.9,10.9-5.3,14.3 c-3.4,3.4-9.1,5.3-16.3,5.3c-3.4,0-6.2-0.2-8.6-0.4V61.6z M88.8,94.1c1.2,0.2,3,0.3,4.8,0.3c10.2,0,15.7-5.7,15.7-15.6 c0.1-8.7-4.9-14.2-14.9-14.2c-2.5,0-4.3,0.2-5.6,0.5V94.1z"/><path fill="#FFFFFF" d="M132.1,97.8l-0.4-3.3h-0.2c-1.5,2.1-4.3,3.9-8.1,3.9c-5.4,0-8.1-3.8-8.1-7.6c0-6.4,5.7-9.9,15.9-9.8v-0.5 c0-2.2-0.6-6.1-6-6.1c-2.5,0-5,0.8-6.9,2l-1.1-3.2c2.2-1.4,5.4-2.3,8.7-2.3c8.1,0,10.1,5.5,10.1,10.8v9.9c0,2.3,0.1,4.5,0.4,6.3 H132.1z M131.4,84.4c-5.3-0.1-11.2,0.8-11.2,5.9c0,3.1,2.1,4.6,4.5,4.6c3.4,0,5.6-2.2,6.4-4.4c0.2-0.5,0.3-1,0.3-1.5V84.4z"/><path fill="#FFFFFF" d="M146.6,63.9v7.6h6.9v3.7h-6.9v14.2c0,3.3,0.9,5.1,3.6,5.1c1.3,0,2.2-0.2,2.8-0.3l0.2,3.6 c-0.9,0.4-2.4,0.7-4.3,0.7c-2.2,0-4-0.7-5.2-2c-1.4-1.4-1.9-3.8-1.9-6.9V75.1h-4.1v-3.7h4.1v-6.3L146.6,63.9z"/><path fill="#FFFFFF" d="M171.4,97.8l-0.4-3.3h-0.2c-1.5,2.1-4.3,3.9-8.1,3.9c-5.4,0-8.1-3.8-8.1-7.6c0-6.4,5.7-9.9,15.9-9.8v-0.5 c0-2.2-0.6-6.1-6-6.1c-2.5,0-5,0.8-6.9,2l-1.1-3.2c2.2-1.4,5.4-2.3,8.7-2.3c8.1,0,10.1,5.5,10.1,10.8v9.9c0,2.3,0.1,4.5,0.4,6.3 H171.4z M170.7,84.4c-5.3-0.1-11.2,0.8-11.2,5.9c0,3.1,2.1,4.6,4.5,4.6c3.4,0,5.6-2.2,6.4-4.4c0.2-0.5,0.3-1,0.3-1.5V84.4z"/></g></g></a></g><a href="https://ourworldindata.org/grapher/fatality-rates-due-to-lightning-in-the-us" target="_blank"><text font-size="27.00" x="15.0" y="36.6" fill="#555"><tspan x="15" y="36.6">Fatality rates due to lightning in the US, United States</tspan></text></a><text font-size="14.40" x="15.0" y="55.5" fill="#666"><tspan x="15" y="55.519999999999996">Annual death rate per million.</tspan></text></g><g class="LineChart"><defs><clipPath id="boundsClip-380"><rect x="19.072000000000003" y="0" width="830" height="956.2"></rect></clipPath></defs><g class="AxisBoxView"><g class="HorizontalAxis"><text x="29.1" y="556.5" fill="#666" text-anchor="middle" font-size="16.2">1900</text><text x="167.5" y="556.5" fill="#666" text-anchor="middle" font-size="16.2">1920</text><text x="305.9" y="556.5" fill="#666" text-anchor="middle" font-size="16.2">1940</text><text x="444.3" y="556.5" fill="#666" text-anchor="middle" font-size="16.2">1960</text><text x="582.8" y="556.5" fill="#666" text-anchor="middle" font-size="16.2">1980</text><text x="721.2" y="556.5" fill="#666" text-anchor="middle" font-size="16.2">2000</text><text x="825" y="556.5" fill="#666" text-anchor="middle" font-size="16.2">2015</text></g><g class="VerticalAxis"><text x="24.07" y="535.3" fill="#666" dominant-baseline="middle" text-anchor="end" font-size="16.2">0</text><text x="24.07" y="463" fill="#666" dominant-baseline="middle" text-anchor="end" font-size="16.2">1</text><text x="24.07" y="390.7" fill="#666" dominant-baseline="middle" text-anchor="end" font-size="16.2">2</text><text x="24.07" y="318.4" fill="#666" dominant-baseline="middle" text-anchor="end" font-size="16.2">3</text><text x="24.07" y="246.1" fill="#666" dominant-baseline="middle" text-anchor="end" font-size="16.2">4</text><text x="24.07" y="173.8" fill="#666" dominant-baseline="middle" text-anchor="end" font-size="16.2">5</text><text x="24.07" y="101.5" fill="#666" dominant-baseline="middle" text-anchor="end" font-size="16.2">6</text></g><g class="AxisGridLines"><line x1="29.07" y1="535.3" x2="825.00" y2="535.3" stroke="#ccc"></line><line x1="29.07" y1="463" x2="825.00" y2="463" stroke="#ddd" stroke-dasharray="3,2"></line><line x1="29.07" y1="390.7" x2="825.00" y2="390.7" stroke="#ddd" stroke-dasharray="3,2"></line><line x1="29.07" y1="318.4" x2="825.00" y2="318.4" stroke="#ddd" stroke-dasharray="3,2"></line><line x1="29.07" y1="246.1" x2="825.00" y2="246.1" stroke="#ddd" stroke-dasharray="3,2"></line><line x1="29.07" y1="173.8" x2="825.00" y2="173.8" stroke="#ddd" stroke-dasharray="3,2"></line><line x1="29.07" y1="101.5" x2="825.00" y2="101.5" stroke="#ddd" stroke-dasharray="3,2"></line></g><g class="AxisGridLines"><line x1="29.1" y1="535.30" x2="29.1" y2="78.40" stroke="#ddd" stroke-dasharray="3,2"></line><line x1="167.5" y1="535.30" x2="167.5" y2="78.40" stroke="#ddd" stroke-dasharray="3,2"></line><line x1="305.9" y1="535.30" x2="305.9" y2="78.40" stroke="#ddd" stroke-dasharray="3,2"></line><line x1="444.3" y1="535.30" x2="444.3" y2="78.40" stroke="#ddd" stroke-dasharray="3,2"></line><line x1="582.8" y1="535.30" x2="582.8" y2="78.40" stroke="#ddd" stroke-dasharray="3,2"></line><line x1="721.2" y1="535.30" x2="721.2" y2="78.40" stroke="#ddd" stroke-dasharray="3,2"></line></g></g><g clip-path="url(#boundsClip-380)"><g class="Lines"><rect x="29" y="78" width="796" height="457" fill="rgba(255,255,255,0)" opacity="0"></rect><g class="key-United-States_0"><path stroke="#ca2628" stroke-linecap="round" d="M29 186L36 78L43 154L50 217L57 261L64 269L71 172L78 256L84 232L91 288L98 305L105 232L112 227L119 162L126 213L133 286L140 166L147 164L154 167L161 177L168 191L174 154L181 201L188 196L195 290L202 219L209 279L216 298L223 263L230 295L237 314L244 266L251 319L258 311L264 269L271 329L278 305L285 277L292 315L299 320L306 349L313 325L320 337L327 308L334 318L341 398L347 418L354 367L361 410L368 415L375 431L382 418L389 437L396 470L403 437L410 456L417 471L424 459L431 492L437 460L444 483L451 476L458 475L465 471L472 485L479 479L486 494L493 503L500 488L507 488L514 492L521 492L527 503L534 493L541 497L548 493L555 508L562 497L569 504L576 507L583 505L590 508L597 504L604 506L610 507L617 509L624 511L631 506L638 511L645 513L652 509L659 514L666 524L673 523L680 516L687 512L694 521L700 524L707 524L714 523L721 522L728 524L735 523L742 525L749 527L756 526L763 524L770 525L777 529L784 527L790 529L797 529L804 529L811 530L818 529L825 529" fill="none" stroke-width="1.5"></path><g fill="#ca2628"><circle cx="29" cy="186" r="2"></circle><circle cx="36" cy="78" r="2"></circle><circle cx="43" cy="154" r="2"></circle><circle cx="50" cy="217" r="2"></circle><circle cx="57" cy="261" r="2"></circle><circle cx="64" cy="269" r="2"></circle><circle cx="71" cy="172" r="2"></circle><circle cx="78" cy="256" r="2"></circle><circle cx="84" cy="232" r="2"></circle><circle cx="91" cy="288" r="2"></circle><circle cx="98" cy="305" r="2"></circle><circle cx="105" cy="232" r="2"></circle><circle cx="112" cy="227" r="2"></circle><circle cx="119" cy="162" r="2"></circle><circle cx="126" cy="213" r="2"></circle><circle cx="133" cy="286" r="2"></circle><circle cx="140" cy="166" r="2"></circle><circle cx="147" cy="164" r="2"></circle><circle cx="154" cy="167" r="2"></circle><circle cx="161" cy="177" r="2"></circle><circle cx="168" cy="191" r="2"></circle><circle cx="174" cy="154" r="2"></circle><circle cx="181" cy="201" r="2"></circle><circle cx="188" cy="196" r="2"></circle><circle cx="195" cy="290" r="2"></circle><circle cx="202" cy="219" r="2"></circle><circle cx="209" cy="279" r="2"></circle><circle cx="216" cy="298" r="2"></circle><circle cx="223" cy="263" r="2"></circle><circle cx="230" cy="295" r="2"></circle><circle cx="237" cy="314" r="2"></circle><circle cx="244" cy="266" r="2"></circle><circle cx="251" cy="319" r="2"></circle><circle cx="258" cy="311" r="2"></circle><circle cx="264" cy="269" r="2"></circle><circle cx="271" cy="329" r="2"></circle><circle cx="278" cy="305" r="2"></circle><circle cx="285" cy="277" r="2"></circle><circle cx="292" cy="315" r="2"></circle><circle cx="299" cy="320" r="2"></circle><circle cx="306" cy="349" r="2"></circle><circle cx="313" cy="325" r="2"></circle><circle cx="320" cy="337" r="2"></circle><circle cx="327" cy="308" r="2"></circle><circle cx="334" cy="318" r="2"></circle><circle cx="341" cy="398" r="2"></circle><circle cx="347" cy="418" r="2"></circle><circle cx="354" cy="367" r="2"></circle><circle cx="361" cy="410" r="2"></circle><circle cx="368" cy="415" r="2"></circle><circle cx="375" cy="431" r="2"></circle><circle cx="382" cy="418" r="2"></circle><circle cx="389" cy="437" r="2"></circle><circle cx="396" cy="470" r="2"></circle><circle cx="403" cy="437" r="2"></circle><circle cx="410" cy="456" r="2"></circle><circle cx="417" cy="471" r="2"></circle><circle cx="424" cy="459" r="2"></circle><circle cx="431" cy="492" r="2"></circle><circle cx="437" cy="460" r="2"></circle><circle cx="444" cy="483" r="2"></circle><circle cx="451" cy="476" r="2"></circle><circle cx="458" cy="475" r="2"></circle><circle cx="465" cy="471" r="2"></circle><circle cx="472" cy="485" r="2"></circle><circle cx="479" cy="479" r="2"></circle><circle cx="486" cy="494" r="2"></circle><circle cx="493" cy="503" r="2"></circle><circle cx="500" cy="488" r="2"></circle><circle cx="507" cy="488" r="2"></circle><circle cx="514" cy="492" r="2"></circle><circle cx="521" cy="492" r="2"></circle><circle cx="527" cy="503" r="2"></circle><circle cx="534" cy="493" r="2"></circle><circle cx="541" cy="497" r="2"></circle><circle cx="548" cy="493" r="2"></circle><circle cx="555" cy="508" r="2"></circle><circle cx="562" cy="497" r="2"></circle><circle cx="569" cy="504" r="2"></circle><circle cx="576" cy="507" r="2"></circle><circle cx="583" cy="505" r="2"></circle><circle cx="590" cy="508" r="2"></circle><circle cx="597" cy="504" r="2"></circle><circle cx="604" cy="506" r="2"></circle><circle cx="610" cy="507" r="2"></circle><circle cx="617" cy="509" r="2"></circle><circle cx="624" cy="511" r="2"></circle><circle cx="631" cy="506" r="2"></circle><circle cx="638" cy="511" r="2"></circle><circle cx="645" cy="513" r="2"></circle><circle cx="652" cy="509" r="2"></circle><circle cx="659" cy="514" r="2"></circle><circle cx="666" cy="524" r="2"></circle><circle cx="673" cy="523" r="2"></circle><circle cx="680" cy="516" r="2"></circle><circle cx="687" cy="512" r="2"></circle><circle cx="694" cy="521" r="2"></circle><circle cx="700" cy="524" r="2"></circle><circle cx="707" cy="524" r="2"></circle><circle cx="714" cy="523" r="2"></circle><circle cx="721" cy="522" r="2"></circle><circle cx="728" cy="524" r="2"></circle><circle cx="735" cy="523" r="2"></circle><circle cx="742" cy="525" r="2"></circle><circle cx="749" cy="527" r="2"></circle><circle cx="756" cy="526" r="2"></circle><circle cx="763" cy="524" r="2"></circle><circle cx="770" cy="525" r="2"></circle><circle cx="777" cy="529" r="2"></circle><circle cx="784" cy="527" r="2"></circle><circle cx="790" cy="529" r="2"></circle><circle cx="797" cy="529" r="2"></circle><circle cx="804" cy="529" r="2"></circle><circle cx="811" cy="530" r="2"></circle><circle cx="818" cy="529" r="2"></circle><circle cx="825" cy="529" r="2"></circle></g></g></g></g></g><g style="fill: #777;" class="SourcesFooter"><g style="fill: #777;" class="clickable"><text font-size="12.60" x="15.0" y="581.6"><tspan x="15" y="581.58">Source: Our World In Data based on NOAA, Lopez Holle and population data</tspan></text></g><text font-size="12.60" x="526.7" y="581.6"><tspan x="526.678" y="581.58"><a target='_blank' style='fill: #777;' href='https://ourworldindata.org/natural-catastrophes/'>OurWorldInData.org/natural-catastrophes/</a> • <a style="fill: #777;" href="http://creativecommons.org/licenses/by-sa/4.0/deed.en_US" target="_blank">CC BY-SA</a></tspan></text></g></g></svg>
